X:1060
T:Miss Spence's Reel
R:reel
C:John Anderson of Voe, 1759
D:The Silver Bow
O:Shetland
Z:id:hn-reel-1060
M:C|
L:1/8
K:D
d2AG F2DF | E=C2E =c3A | B2AG F2D2 |1 Dd2c d3A :|2 Dd2c d3e ||
|: fafd fafd | egec egec | fafd fafd |1 egec d3e :|2 egec d3A || 

